packages/components/icon/src/assets/icons/discovery.svg

<svg width="24" height="24" viewBox="0 0 24 24" fill="none" xmlns="http://www.w3.org/2000/svg">
<path fill-rule="evenodd" clip-rule="evenodd" d="M12.0682 3C13.717 3 15.2355 3.40495 16.624 4.21488C18.0124 5.0248 19.1116 6.12396 19.9215 7.5124C20.7314 8.90083 21.1364 10.4194 21.1364 12.0682C21.1364 13.717 20.7314 15.2355 19.9215 16.624C19.1116 18.0124 18.0124 19.1116 16.624 19.9215C15.2355 20.7314 13.717 21.1364 12.0682 21.1364C10.4194 21.1364 8.90083 20.7314 7.5124 19.9215C6.12396 19.1116 5.0248 18.0124 4.21488 16.624C3.40495 15.2355 3 13.717 3 12.0682C3 10.4194 3.40495 8.90083 4.21488 7.5124C5.0248 6.12396 6.12396 5.0248 7.5124 4.21488C8.90083 3.40495 10.4194 3 12.0682 3ZM11.7862 4.43182C11.8295 4.53306 11.8223 4.63791 11.7645 4.74638C11.7066 4.85486 11.6054 4.99587 11.4607 5.16942C11.1859 5.47314 11.0341 5.72624 11.0052 5.92872C10.9762 6.17459 10.9075 6.40237 10.7991 6.61209C10.6906 6.8218 10.593 6.92665 10.5062 6.92665C10.4339 6.92665 10.3833 6.88326 10.3543 6.79649C10.3109 6.66632 10.2386 6.5687 10.1374 6.50362C10.0362 6.43853 9.8843 6.3626 9.68182 6.27583C9.58058 6.2469 9.41426 6.17459 9.18285 6.05888C9.0093 5.95764 8.87552 5.83471 8.78151 5.69008C8.6875 5.54545 8.6405 5.3936 8.6405 5.2345C7.75826 5.66839 6.96281 6.29029 6.25413 7.10021C6.42769 7.28822 6.64463 7.45093 6.90496 7.58833C7.16529 7.72572 7.41116 7.79442 7.64256 7.79442C7.85951 7.79442 7.96798 7.67872 7.96798 7.44731C7.96798 7.31715 7.9282 7.1219 7.84866 6.86157C7.76911 6.60124 7.75103 6.46384 7.79442 6.44938C7.86674 6.43492 8.03667 6.48554 8.30424 6.60124C8.5718 6.71694 8.83574 6.85795 9.09607 7.02428C9.35641 7.1906 9.53719 7.36054 9.63843 7.53409C9.68182 7.62087 9.70351 7.69318 9.70351 7.75103C9.70351 7.85227 9.65651 7.93543 9.5625 8.00052C9.46849 8.0656 9.32748 8.14153 9.13946 8.22831C8.87913 8.32955 8.69112 8.43078 8.57541 8.53202C8.35847 8.7345 8.15961 9.00568 7.97882 9.34556C7.79804 9.68544 7.70764 9.99277 7.70764 10.2676C7.70764 10.9618 7.62087 11.2221 7.44731 11.0486C7.36054 10.9618 7.22676 10.8714 7.04597 10.7774C6.86519 10.6834 6.68079 10.6364 6.49277 10.6364C6.20351 10.6364 5.95765 10.7738 5.75517 11.0486C5.66839 11.1498 5.625 11.251 5.625 11.3523C5.625 11.4824 5.69008 11.5981 5.82025 11.6994C5.95041 11.8006 6.14566 11.9163 6.40599 12.0465C6.65186 12.1767 6.83626 12.2851 6.95919 12.3719C7.08213 12.4587 7.15806 12.5599 7.18698 12.6756C7.2593 12.9504 7.41116 13.0878 7.64256 13.0878C7.71488 13.0878 7.79081 13.0733 7.87035 13.0444C7.9499 13.0155 8.00413 12.9866 8.03306 12.9576C8.07645 12.9143 8.24277 12.8926 8.53202 12.8926C8.98037 12.8926 9.25516 12.9793 9.35641 13.1529C9.41426 13.2541 9.55165 13.3337 9.7686 13.3915C9.92769 13.4205 10.0651 13.4747 10.1808 13.5542C10.2965 13.6338 10.376 13.7676 10.4194 13.9556C10.4628 14.1436 10.5568 14.2846 10.7014 14.3786C10.8461 14.4726 11.0341 14.563 11.2655 14.6498C11.4535 14.7221 11.5981 14.7908 11.6994 14.8559C11.8006 14.921 11.8729 15.0041 11.9163 15.1054C11.9452 15.2211 11.9597 15.3151 11.9597 15.3874C11.9597 15.6767 11.8874 15.9876 11.7428 16.3202C11.5981 16.6529 11.4391 16.8698 11.2655 16.9711C11.1064 17.0579 10.9256 17.2459 10.7231 17.5351C10.5496 17.7955 10.3977 17.9762 10.2676 18.0775C10.0795 18.2076 9.79029 18.5909 9.39979 19.2273C10.2676 19.5455 11.157 19.7045 12.0682 19.7045C13.4132 19.7045 14.6787 19.3719 15.8647 18.7066C15.7924 18.6921 15.7237 18.5945 15.6586 18.4137C15.5935 18.233 15.5248 17.9545 15.4525 17.5785L15.2572 16.7975C15.156 16.4793 15.1054 16.125 15.1054 15.7345L15.1271 15.062C15.1271 14.9029 15.1126 14.7872 15.0837 14.7149C15.0548 14.6281 15.0258 14.4762 14.9969 14.2593C14.968 14.0424 14.8848 13.8688 14.7474 13.7386C14.61 13.6085 14.3822 13.5289 14.064 13.5C13.4855 13.4711 13.077 13.3735 12.8383 13.2071C12.5997 13.0408 12.4804 12.719 12.4804 12.2417C12.4804 11.7066 12.6395 11.2113 12.9576 10.7557C13.2758 10.3001 13.6157 10.0072 13.9773 9.87707C14.1653 9.80475 14.3461 9.76859 14.5196 9.76859C14.7655 9.76859 14.9897 9.8843 15.1921 10.1157C15.3079 10.2314 15.6188 10.3182 16.125 10.376C16.6023 10.4339 16.8771 10.5062 16.9494 10.593C17.0362 10.6942 17.188 11.0052 17.405 11.5258C17.6942 12.2345 17.9112 12.6467 18.0558 12.7624C18.1715 12.8347 18.3161 12.8709 18.4897 12.8709H18.7934C18.9525 12.8709 19.0393 12.9143 19.0537 13.001C19.0537 13.0733 18.9308 13.2541 18.6849 13.5434C18.439 13.8616 18.2474 14.1291 18.11 14.3461C17.9726 14.563 17.8967 14.7655 17.8822 14.9535C17.8822 15.2283 17.7882 15.7707 17.6002 16.5806C17.4845 17.1012 17.4267 17.3977 17.4267 17.47V17.5134C17.7882 17.1519 18.1064 16.7614 18.3812 16.3419C18.4824 16.0093 18.5692 15.8068 18.6415 15.7345C18.6994 15.6911 18.7428 15.6839 18.7717 15.7128C19.3936 14.5992 19.7045 13.3843 19.7045 12.0682V11.8729C19.6756 11.9308 19.6467 11.9742 19.6178 12.0031C19.5599 12.0899 19.3611 12.22 19.0212 12.3936C18.6813 12.5671 18.468 12.6539 18.3812 12.6539C18.3233 12.6539 18.1534 12.3864 17.8714 11.8512C17.5894 11.3161 17.376 10.8895 17.2314 10.5713C17.188 10.4845 17.1808 10.4013 17.2097 10.3218C17.2386 10.2423 17.2965 10.141 17.3833 10.0181C17.47 9.89514 17.499 9.79752 17.47 9.72521C17.4267 9.65289 17.3435 9.64566 17.2206 9.70351C17.0976 9.76136 16.9928 9.80114 16.906 9.82283C16.8192 9.84452 16.7541 9.81922 16.7107 9.7469C16.624 9.58781 16.5372 9.48657 16.4504 9.44318C16.3636 9.39979 16.313 9.42872 16.2986 9.52996C16.2696 9.64566 16.2407 9.72521 16.2118 9.76859C16.1829 9.81198 16.1467 9.81198 16.1033 9.76859C16.0165 9.71074 15.9153 9.46488 15.7996 9.03099C15.7851 8.9876 15.7562 8.96591 15.7128 8.96591C15.6694 8.96591 15.6369 8.98399 15.6152 9.02014C15.5935 9.0563 15.6043 9.09607 15.6477 9.13946C15.7056 9.18285 15.7345 9.24793 15.7345 9.33471C15.7345 9.39256 15.72 9.47934 15.6911 9.59504C15.6767 9.65289 15.6405 9.69267 15.5826 9.71436C15.5248 9.73605 15.4742 9.73605 15.4308 9.71436C15.3874 9.69267 15.3874 9.65289 15.4308 9.59504L15.4742 9.48657C15.4742 9.42872 15.438 9.36364 15.3657 9.29132C15.2934 9.21901 15.2283 9.13946 15.1705 9.05269C15.0548 8.92252 14.9029 8.85744 14.7149 8.85744C14.5992 8.85744 14.4979 8.8719 14.4112 8.90083C14.3822 8.91529 14.2955 9.04545 14.1508 9.29132C14.0351 9.55165 13.9267 9.72521 13.8254 9.81198C13.7386 9.89876 13.6446 9.94215 13.5434 9.94215C13.3554 9.94215 13.1963 9.81922 13.0661 9.57335C12.936 9.31302 13.2107 9.11777 13.8905 8.9876C13.9339 8.95868 13.9556 8.92975 13.9556 8.90083C13.9556 8.85744 13.9086 8.76705 13.8146 8.62965C13.7206 8.49225 13.6952 8.41632 13.7386 8.40186C13.782 8.3874 13.9086 8.31147 14.1183 8.17407C14.328 8.03667 14.5124 7.91012 14.6715 7.79442C14.7293 7.75103 14.7583 7.70764 14.7583 7.66426C14.7583 7.62087 14.7293 7.57025 14.6715 7.5124C14.6136 7.45455 14.5992 7.41839 14.6281 7.40393H14.6498C14.6932 7.40393 14.7655 7.42924 14.8667 7.47986C14.968 7.53048 15.0548 7.56663 15.1271 7.58833C15.1994 7.61002 15.2355 7.59194 15.2355 7.53409C15.2355 7.46178 15.1813 7.37862 15.0728 7.28461C14.9644 7.1906 14.8233 7.13636 14.6498 7.1219C14.4907 7.1219 14.4112 7.07128 14.4112 6.97004C14.4112 6.89773 14.4618 6.81095 14.563 6.70971C14.6643 6.60847 14.78 6.52893 14.9101 6.47107C15.0114 6.42769 15.1343 6.34814 15.2789 6.23244C15.4091 6.1312 15.5646 6.03357 15.7454 5.93957C15.9261 5.84556 16.1178 5.76963 16.3202 5.71178C15.0331 4.85847 13.6157 4.43182 12.0682 4.43182H11.7862ZM13.5868 7.01343C13.6157 7.01343 13.6591 7.03874 13.7169 7.08936C13.7748 7.13998 13.8182 7.19421 13.8471 7.25207C13.876 7.29545 13.9303 7.35692 14.0098 7.43647C14.0894 7.51601 14.1472 7.59917 14.1834 7.68595C14.2195 7.77273 14.2087 7.84504 14.1508 7.90289C14.064 7.98967 13.97 8.03306 13.8688 8.03306C13.7242 8.03306 13.6374 7.97521 13.6085 7.8595C13.6085 7.84504 13.6193 7.82696 13.641 7.80527C13.6627 7.78357 13.7025 7.75826 13.7603 7.72934C13.8037 7.70041 13.782 7.58471 13.6952 7.38223C13.6085 7.17975 13.5651 7.06405 13.5651 7.03512C13.5651 7.02066 13.5723 7.01343 13.5868 7.01343ZM13.4566 7.46901C13.4855 7.46901 13.5 7.49793 13.5 7.55579C13.5 7.65703 13.4711 7.73657 13.4132 7.79442C13.3698 7.83781 13.3192 7.8595 13.2614 7.8595C13.189 7.8595 13.1348 7.84504 13.0987 7.81612C13.0625 7.78719 13.0589 7.75826 13.0878 7.72934L13.4349 7.46901H13.4566ZM18.8368 8.51033C18.75 8.56818 18.6849 8.6405 18.6415 8.72727C18.5981 8.81405 18.5909 8.89359 18.6198 8.96591C18.6343 9.02376 18.6632 9.12861 18.7066 9.28048C18.75 9.43234 18.8079 9.5625 18.8802 9.67097C18.9525 9.77944 19.0465 9.84091 19.1622 9.85537H19.2056C19.2924 9.85537 19.3357 9.81922 19.3357 9.7469C19.3357 9.71798 19.3141 9.64566 19.2707 9.52996C19.2273 9.41426 19.1983 9.32748 19.1839 9.26963C19.0393 8.92252 18.9236 8.66942 18.8368 8.51033ZM17.2097 8.57541C17.1085 8.57541 17.0145 8.61519 16.9277 8.69473C16.8409 8.77428 16.7975 8.86467 16.7975 8.96591C16.7975 9.03822 16.8409 9.11054 16.9277 9.18285C17.0434 9.26963 17.1772 9.30579 17.329 9.29132C17.4809 9.27686 17.593 9.27686 17.6653 9.29132H17.7304C17.8027 9.29132 17.8678 9.26601 17.9256 9.21539C17.9835 9.16477 18.0124 9.10331 18.0124 9.03099C18.0124 8.95868 17.9762 8.8936 17.9039 8.83574C17.687 8.66219 17.4556 8.57541 17.2097 8.57541ZM18.75 10.7014C18.6777 10.8461 18.6958 10.9473 18.8042 11.0052C18.9127 11.063 19.0682 11.1173 19.2707 11.1679C19.4731 11.2185 19.5961 11.2583 19.6395 11.2872L19.6612 11.3089L19.6178 10.8967C19.3574 10.6653 19.1405 10.5496 18.9669 10.5496C18.8657 10.5496 18.7934 10.6002 18.75 10.7014ZM4.67045 11.0919C4.6126 11.0919 4.57283 11.1389 4.55114 11.233C4.52944 11.327 4.50413 11.3595 4.47521 11.3306V11.3089C4.44628 11.656 4.43182 11.9091 4.43182 12.0682C4.43182 13.4422 4.76446 14.7076 5.42975 15.8647C6.09504 17.0217 6.99896 17.9401 8.14153 18.6198C8.22831 17.9256 8.32231 17.4122 8.42355 17.0795C8.43802 17.0362 8.44525 16.9711 8.44525 16.8843C8.44525 16.6963 8.39101 16.4974 8.28254 16.2877C8.17407 16.078 8.0186 15.8285 7.81612 15.5393C7.59917 15.2066 7.48347 15.0041 7.46901 14.9318C7.45455 14.7872 7.50516 14.5124 7.62087 14.1074C7.70764 13.7603 7.75103 13.5579 7.75103 13.5C7.75103 13.3988 7.72211 13.3481 7.66426 13.3481C7.63533 13.3481 7.59194 13.3626 7.53409 13.3915C7.47624 13.4205 7.43285 13.4349 7.40393 13.4349C7.36054 13.4349 7.25207 13.3264 7.07851 13.1095C6.86157 12.8492 6.73864 12.7045 6.70971 12.6756C6.55062 12.5165 6.20352 12.3574 5.66839 12.1983C5.33574 12.0826 5.15496 12.0103 5.12603 11.9814C5.08264 11.938 5.02841 11.7934 4.96333 11.5475C4.89824 11.3017 4.82231 11.157 4.73554 11.1136C4.72107 11.0992 4.69938 11.0919 4.67045 11.0919Z" fill="currentColor"/>
</svg>

<svg viewBox="0 0 24 24" fill="none" xmlns="http://www.w3.org/2000/svg"><path fill-rule="evenodd" clip-rule="evenodd" d="M12.068 3c1.649 0 3.168.405 4.556 1.215a9.014 9.014 0 0 1 3.298 3.297c.81 1.389 1.214 2.907 1.214 4.556s-.405 3.168-1.214 4.556a9.014 9.014 0 0 1-3.298 3.298c-1.388.81-2.907 1.214-4.556 1.214s-3.167-.405-4.556-1.214a9.014 9.014 0 0 1-3.297-3.298C3.405 15.236 3 13.717 3 12.068s.405-3.167 1.215-4.556a9.014 9.014 0 0 1 3.297-3.297C8.901 3.405 10.42 3 12.068 3Zm-.282 1.432a.349.349 0 0 1-.021.314 2.73 2.73 0 0 1-.304.423c-.275.304-.427.557-.456.76a1.98 1.98 0 0 1-.206.683c-.108.21-.206.315-.293.315-.072 0-.123-.044-.152-.13a.535.535 0 0 0-.217-.293 3.271 3.271 0 0 0-.455-.228 3.41 3.41 0 0 1-.5-.217 1.169 1.169 0 0 1-.4-.369.823.823 0 0 1-.142-.456C7.758 5.668 6.963 6.29 6.254 7.1c.174.188.39.35.651.488.26.138.506.206.738.206.217 0 .325-.115.325-.347 0-.13-.04-.325-.12-.585-.079-.26-.097-.398-.054-.413.073-.014.243.037.51.152.268.116.532.257.792.423.26.167.441.337.542.51a.51.51 0 0 1 .066.217c0 .101-.047.184-.142.25a2.963 2.963 0 0 1-.423.227c-.26.102-.448.203-.564.304a3.08 3.08 0 0 0-.596.814c-.181.34-.271.647-.271.922 0 .694-.087.954-.26.78a1.658 1.658 0 0 0-.402-.27 1.187 1.187 0 0 0-.553-.142c-.29 0-.535.138-.738.413a.468.468 0 0 0-.13.303c0 .13.065.246.195.347.13.102.326.217.586.348.246.13.43.238.553.325a.534.534 0 0 1 .228.304c.072.274.224.412.456.412a.667.667 0 0 0 .227-.044.463.463 0 0 0 .163-.086c.043-.044.21-.065.499-.065.448 0 .723.086.824.26.058.101.196.18.413.239.159.029.296.083.412.162.116.08.195.214.238.402a.657.657 0 0 0 .282.423c.145.094.333.184.564.27.188.073.333.142.434.207a.553.553 0 0 1 .217.25c.03.115.044.21.044.281 0 .29-.073.6-.217.933-.145.333-.304.55-.478.651-.159.087-.34.275-.542.564-.173.26-.325.441-.455.543-.189.13-.478.513-.868 1.15a7.694 7.694 0 0 0 2.668.476c1.345 0 2.61-.332 3.797-.997-.073-.015-.141-.113-.206-.293a6.033 6.033 0 0 1-.207-.836l-.195-.78a3.496 3.496 0 0 1-.152-1.063l.022-.673c0-.16-.014-.275-.043-.347a2.824 2.824 0 0 1-.087-.456.845.845 0 0 0-.25-.52c-.137-.13-.365-.21-.683-.239-.579-.029-.987-.127-1.226-.293-.238-.166-.358-.488-.358-.965 0-.535.16-1.03.478-1.486.318-.456.658-.749 1.02-.879.187-.072.368-.108.542-.108.245 0 .47.115.672.347.116.115.427.202.933.26.477.058.752.13.824.217.087.101.239.412.456.933.29.709.506 1.12.65 1.236a.805.805 0 0 0 .435.109h.303c.16 0 .246.043.26.13 0 .072-.122.253-.368.542-.246.319-.438.586-.575.803-.137.217-.213.42-.228.607 0 .275-.094.818-.282 1.628-.116.52-.173.817-.173.889v.043c.361-.361.68-.752.954-1.171.101-.333.188-.535.26-.607.058-.044.102-.051.13-.022a7.35 7.35 0 0 0 .933-3.645v-.195a.504.504 0 0 1-.086.13c-.058.087-.257.217-.597.39-.34.174-.553.26-.64.26-.058 0-.228-.267-.51-.802a25.901 25.901 0 0 1-.64-1.28.306.306 0 0 1-.021-.25c.029-.079.087-.18.173-.303.087-.123.116-.22.087-.293-.043-.072-.127-.08-.25-.021a1.784 1.784 0 0 1-.314.119c-.087.022-.152-.004-.195-.076-.087-.16-.174-.26-.26-.304-.087-.043-.138-.014-.152.087a.843.843 0 0 1-.087.239c-.03.043-.065.043-.109 0-.087-.058-.188-.304-.303-.738-.015-.043-.044-.065-.087-.065a.107.107 0 0 0-.098.054c-.021.036-.01.076.033.12.058.043.087.108.087.195 0 .058-.015.144-.044.26a.164.164 0 0 1-.108.12c-.058.021-.109.021-.152 0-.044-.022-.044-.062 0-.12l.043-.108c0-.058-.036-.123-.108-.196a1.558 1.558 0 0 1-.195-.238.58.58 0 0 0-.456-.196.96.96 0 0 0-.304.044c-.029.014-.115.144-.26.39-.116.26-.224.434-.326.521a.394.394 0 0 1-.282.13c-.188 0-.347-.123-.477-.369-.13-.26.145-.455.824-.585.044-.03.066-.058.066-.087 0-.044-.047-.134-.141-.271-.094-.138-.12-.214-.076-.228.043-.015.17-.09.38-.228.209-.137.393-.264.553-.38.057-.043.086-.086.086-.13 0-.043-.029-.094-.086-.152-.058-.057-.073-.094-.044-.108h.022c.043 0 .115.025.217.076.101.05.188.087.26.108.072.022.108.004.108-.054 0-.072-.054-.155-.162-.25a.718.718 0 0 0-.423-.162c-.16 0-.239-.05-.239-.152 0-.072.05-.159.152-.26.101-.102.217-.181.347-.239.101-.043.224-.123.369-.239a3.184 3.184 0 0 1 1.041-.52 7.534 7.534 0 0 0-4.252-1.28h-.282Zm1.8 2.581c.03 0 .073.026.13.076a.529.529 0 0 1 .131.163c.029.043.083.105.163.184a.78.78 0 0 1 .173.25c.037.087.026.159-.032.217a.394.394 0 0 1-.282.13c-.145 0-.232-.058-.26-.173 0-.015.01-.033.032-.055a.488.488 0 0 1 .12-.076c.043-.029.021-.144-.066-.347-.087-.202-.13-.318-.13-.347 0-.014.007-.022.022-.022Zm-.13.456c.03 0 .044.029.044.087 0 .101-.029.18-.087.238a.208.208 0 0 1-.152.066c-.072 0-.126-.015-.162-.044-.037-.029-.04-.058-.011-.087l.347-.26h.022Zm5.38 1.041a.56.56 0 0 0-.194.217c-.044.087-.051.167-.022.239.014.058.043.163.087.314.043.152.1.283.173.391a.39.39 0 0 0 .282.184h.044c.086 0 .13-.036.13-.108a.927.927 0 0 0-.065-.217 2.643 2.643 0 0 1-.087-.26c-.145-.347-.26-.6-.347-.76Zm-1.626.065a.41.41 0 0 0-.282.12.36.36 0 0 0-.13.27c0 .073.043.146.13.218.115.087.25.123.401.108.152-.014.264-.014.336 0h.065a.289.289 0 0 0 .196-.076.236.236 0 0 0 .086-.184c0-.072-.036-.137-.108-.195a1.092 1.092 0 0 0-.694-.26Zm1.54 2.126c-.072.145-.054.246.054.304.109.058.264.112.467.163.202.05.325.09.369.12l.021.02-.043-.411c-.26-.232-.477-.347-.651-.347-.101 0-.174.05-.217.151Zm-14.08.39c-.057 0-.097.048-.119.142-.022.094-.047.127-.076.098v-.022a7.483 7.483 0 0 0 .955 4.556 7.507 7.507 0 0 0 2.712 2.755c.086-.694.18-1.208.282-1.54a.657.657 0 0 0 .021-.196c0-.188-.054-.387-.162-.596a6.808 6.808 0 0 0-.467-.749c-.217-.332-.333-.535-.347-.607-.014-.145.036-.42.152-.825.087-.347.13-.55.13-.607 0-.101-.029-.152-.087-.152a.334.334 0 0 0-.13.043.332.332 0 0 1-.13.044c-.043 0-.152-.109-.325-.325a13.84 13.84 0 0 0-.37-.434c-.158-.16-.505-.319-1.04-.478-.333-.115-.514-.188-.543-.217-.043-.043-.098-.188-.163-.434-.065-.245-.14-.39-.227-.433-.015-.015-.037-.022-.066-.022Z" fill="currentColor"/></svg>
